front/public/icons/twitchJoin.svg

<?xml version="1.0" encoding="UTF-8"?>
<svg width="24" height="24" version="1.1" viewBox="0 0 24 24" xmlns="http://www.w3.org/2000/svg">
 <path d="m7 2-3.5703 3.5703v12.859h4.2812v3.5703l3.5781-3.5703h2.8516l6.4297-6.4297v-10h-13.57zm0.71094 1.4297h11.43v7.8594l-2.8516 2.8516h-2.8594l-2.5 2.5v-2.5h-3.2188v-10.711zm3.9297 2.5v4.2813h1.4297v-4.2813h-1.4297zm3.9297 0v4.2813h1.4297v-4.2813h-1.4297zm5 10.07v2h-4v2h4v2l3-3-3-3z"/>
</svg>

<svg width="24" height="24" xmlns="http://www.w3.org/2000/svg"><path d="M7 2 3.43 5.57v12.86h4.28V22l3.579-3.57h2.852L20.57 12V2H7zm.71 1.43h11.43v7.86l-2.85 2.85h-2.86l-2.5 2.5v-2.5H7.71V3.43zm3.93 2.5v4.281h1.43V5.93h-1.43zm3.93 0v4.281H17V5.93h-1.43zm5 10.07v2h-4v2h4v2l3-3-3-3z"/></svg>
